svg/u1f468_1f3ff_200d_1f9af.svg

<svg viewBox="0 0 128 128" xmlns="http://www.w3.org/2000/svg">
  <g id="head">
    <path id="head_2_" d="M87,13.49c-2.54-4.1-8.28-7.29-13.04-6.5c-5.33,0.88-8.19,4.72-8.95,9.58 c-0.27,1.76-0.22,3.52,0.08,4.77c0.04,0.15,0.33,1.23,0.35,1.58c0.2,1.31-2.34,2.62-2.64,4.06c-0.22,1.09,2.05,1.78,2.23,1.98 c0.89,0.98-0.52,5.63,5.72,6.1c2.4,0.18,1.93,0.03,2.63,0.3c1.1,0.42,1,3.36,1,3.36s0.61,4.82,4.74,3.55 c4.71-1.46,4.89-4.78,4.89-4.78s-1.75-4.65,1.06-9.48C87.31,24.13,88.63,16.12,87,13.49z" fill="#70534A"/>
  </g>
  <path id="mouth_2_" d="M65.66,31.55c0.86,0.05,1.72-0.15,2.45-0.69c0.8-0.59,0.25-1.25-0.66-0.86 c-0.55,0.24-1.33,0.35-2.04,0.22L65.66,31.55z" fill="#1A1717"/>
  <ellipse id="eye_2_" cx="69.3" cy="23.63" fill="#1A1717" rx="1.14" ry="1.75" transform="matrix(0.9995 -0.0315 0.0315 0.9995 -0.7101 2.1947)"/>
  <path id="eyebrow_2_" d="M68.41,21.04c-1.13,0.26-1.35-0.48-0.95-1.05c0.3-0.42,0.99-0.75,2.28-0.42 c1.21,0.31,1.68,1.04,1.99,1.49s0.24,0.87-0.04,0.89C71.3,21.97,69.81,20.71,68.41,21.04z" fill="#1A1717"/>
  <g id="hairGroup">
    <path id="hair" d="M87.53,10.67c-2.32-2.85-6.57-4.7-10.61-4.88c-2.72-0.12-5.34,0.4-7.57,1.48 c-0.04,0.02-3.95,2.36-4.89,4.43c-1.01,2.21-0.07,3.49,0.16,3.72c0.36,0.36,1.17,0.24,1.17,0.24c1.59-0.14,6.33-0.75,8.91-0.25 c0.41,0.08,0.86,0.2,1.05,0.57c0.08,0.16,0.16,1.19,0.18,1.37c0.2,2.33,0.03,3.8,0.76,5.25c0.12,0.24,0.59,0.54,0.59,0.54 l0.93-1.48c0.59-0.85,1.12-1.58,1.9-1.44c2.3,0.41,2.04,4.5-0.63,5.5c0,0,0.36,2.6,2.76,3.55c2.12,0.79,3.03,0.33,3.26-0.64 c0.49-2.1,1.64-3.32,2.24-4.29c0.71-1.15,1.45-2.33,1.95-5.4C90.18,15.86,89.44,13.01,87.53,10.67z" fill="#232020"/>
    <radialGradient id="hairHighlights_1_" cx="76.1361" cy="109.1028" gradientTransform="matrix(0.9932 0.1161 0.1145 -0.9796 -11.7693 119.007)" gradientUnits="userSpaceOnUse" r="16.3145">
      <stop offset="0.5264" stop-color="#444140" stop-opacity="0"/>
      <stop offset="1" stop-color="#444140"/>
    </radialGradient>
    <path id="hairHighlights" d="M87.53,10.67c-2.32-2.85-6.57-4.7-10.61-4.88 c-2.72-0.12-5.34,0.4-7.57,1.48c-0.04,0.02-4.1,2.37-4.89,4.43c-0.99,2.57-0.07,3.49,0.16,3.72c0.36,0.36,1.17,0.24,1.17,0.24 c1.59-0.14,6.33-0.75,8.91-0.25c0.41,0.08,0.86,0.2,1.05,0.57c0.08,0.16,0.16,1.19,0.18,1.37c0.2,2.33,0.03,3.8,0.76,5.25 c0.12,0.24,0.59,0.54,0.59,0.54l0.93-1.48c0.59-0.85,1.12-1.58,1.9-1.44c2.3,0.41,2.04,4.5-0.63,5.5c0,0,0.36,2.6,2.76,3.55 c2.12,0.79,3.03,0.33,3.26-0.64c0.49-2.1,1.64-3.32,2.24-4.29c0.71-1.15,1.45-2.33,1.95-5.4C90.18,15.86,89.44,13.01,87.53,10.67z" fill="url(#hairHighlights_1_)"/>
  </g>
  <g id="cane">
    <g>
      <linearGradient id="SVGID_1_" gradientTransform="matrix(0.9991 0.0432 0.0432 -0.9991 3.7744 120.713)" gradientUnits="userSpaceOnUse" x1="52.4392" x2="31.4911" y1="40.7399" y2="15.0243">
        <stop offset="0.4697" stop-color="#E0E0E0"/>
        <stop offset="0.9915" stop-color="#BDBDBD"/>
      </linearGradient>
      <polygon fill="url(#SVGID_1_)" points="23.68,121.23 21.55,119.19 57.34,81.65 67.22,71.39 69.35,73.42 54.03,89.42 "/>
      <rect fill="#FF3D00" height="2.95" transform="matrix(0.69 -0.7239 0.7239 0.69 -73.2028 56.1841)" width="18.44" x="19.76" y="112.07"/>
      <linearGradient id="SVGID_2_" gradientTransform="matrix(0.9981 0.0607 -0.0607 0.9981 -3.057 0.3117)" gradientUnits="userSpaceOnUse" x1="34.6207" x2="30.6051" y1="116.5495" y2="120.5633">
        <stop offset="0.4697" stop-color="#E0E0E0"/>
        <stop offset="0.9915" stop-color="#BDBDBD"/>
      </linearGradient>
      <circle cx="21.81" cy="121.05" fill="url(#SVGID_2_)" r="2.86"/>
    </g>
    <path d="M57.34,81.65l2.15,2.05l11.79-12.28c0.39-0.4,0.37-1.04-0.03-1.43l-0.68-0.65 c-0.4-0.38-1.04-0.37-1.42,0.03L57.34,81.65z" fill="#636262"/>
  </g>
  <g id="leg_x5F_right">
    <path d="M104.36,108.76l-14-15.97c-0.87-1-1.39-2.25-1.47-3.57l-1.37-22.35l-15.42,1.7l4.86,23.06 c0.79,3.73,2.88,7.06,5.91,9.37l16.41,12.53L104.36,108.76z" fill="#646464"/>
  </g>
  <g id="leg_x5F_left">
    <path d="M87.33,63.18l-17.49,1.6l-4.5,20.29c-0.83,3.74-1.12,7.59-0.85,11.42l1.63,23.12h6.64l2.94-24.9 c0,0,4.98-13.26,5.14-13.33c3.26-1.54,7.38-3.89,7.38-9.64C88.22,70.92,87.33,63.18,87.33,63.18z" fill="#7C7C7C"/>
  </g>
  <g id="shoe_x5F_left">
    <path d="M73.85,123.98c0.63,0,1.14-0.51,1.14-1.14l0-2.79c0-1.89-1.92-4.05-1.92-4.05h-6.94l-6.25,2.06 c-1.51,0.59-2.51,2.05-2.53,3.68L57.35,123c0,0.55,0.44,1,1,1L73.85,123.98z" fill="#4568AD"/>
  </g>
  <g id="shoe_x5F_right">
    <path d="M108.72,111.9c0.44-0.45,0.44-1.17,0-1.61l-1.97-1.97c-1.34-1.34-4.22-1.51-4.22-1.51l-4.91,4.91 l-2.96,5.88c-0.65,1.49-0.33,3.23,0.81,4.39l0.89,0.89c0.39,0.39,1.02,0.39,1.41,0L108.72,111.9z" fill="#325599"/>
  </g>
  <radialGradient id="SVGID_3_" cx="73.7035" cy="77.3572" gradientTransform="matrix(1 0 0 -1 0 130)" gradientUnits="userSpaceOnUse" r="21.1882">
    <stop offset="0.3637" stop-color="#00BFA5"/>
    <stop offset="0.8121" stop-color="#00B29A"/>
    <stop offset="1" stop-color="#00AB94"/>
  </radialGradient>
  <path d="M86.15,73.76h-13.9c-2.26,0-4.09-2.17-4.09-4.84l2.14-22.39c0.43-4.09,1.87-7.95,4.66-9.61 c4.86-3.39,8.56-1.33,9.96,0.79c1,1.52,1.42,3.27,1.65,5.85l2.45,25.34C89.02,71.8,88.41,73.76,86.15,73.76z" fill="url(#SVGID_3_)"/>
  <g id="arm_2_">
    <linearGradient id="arm_1_" gradientTransform="matrix(1 0 0 -1 0 130)" gradientUnits="userSpaceOnUse" x1="78.1825" x2="75.3918" y1="63.47" y2="76.4933">
      <stop offset="0.5979" stop-color="#70534A"/>
      <stop offset="1" stop-color="#5C4037"/>
    </linearGradient>
    <path id="arm" d="M86.11,57.33l-1.8-9.96l-8,0.86l2.46,9.94l-9.36,9.69c-2.65,2.67,2.19,5.24,3.9,4.14 l8.52-6.89C83.34,63.81,86.56,61.6,86.11,57.33z" fill="url(#arm_1_)"/>
  </g>
  <g id="hand_1_">
    <linearGradient id="hand_2_" gradientTransform="matrix(1 0 0 -1 0 130)" gradientUnits="userSpaceOnUse" x1="72.5151" x2="64.143" y1="61.3426" y2="53.9008">
      <stop offset="0.5979" stop-color="#70534A"/>
      <stop offset="1" stop-color="#5C4037"/>
    </linearGradient>
    <path id="hand" d="M70.57,68.37c0.16-0.12,0.24-0.34,0.18-0.55c-0.08-0.26-0.37-0.41-0.63-0.32 c-0.02,0.01-2.85,0.93-4.49,1.58c-0.47,0.19-1.9,0.75-1.94,2.5c-0.03,1.33-0.04,3.58-0.04,3.58l2.31-2.4 c-0.06,0.89-0.13,2.8-0.15,3.59c-0.04,1.33,0.98,1.86,2.35,1.12c2.06-1.11,3.26-1.39,4.19-2.88c0.29-0.48,0.78-3.59,0.96-4.24 L70.57,68.37z" fill="url(#hand_2_)"/>
  </g>
  <g id="arm_x5F_shirt">
    <path d="M75.64,53.35l10.84-1.97l-1.75-9.67c-0.54-2.98-3.39-4.96-6.37-4.42l-0.05,0.01 c-2.98,0.54-4.96,3.39-4.42,6.37L75.64,53.35z" fill="#04A287"/>
  </g>
  <path id="cord_2_" d="M77.28,73.04c-1.11-3.09-4.96-6.54-8.13-6.25c-2.2,0-2.12,1.77-2.12,1.77l2.25-0.78 c2.33-0.29,6.09,2.94,7.05,5.6c0.37,1.04,0.55,2.45-0.75,3.26c-0.18,0.11-0.36,0.13-0.56,0.06c-0.6-0.22-1.76-1.76-2.41-2.92 c0,0-0.11,0.6-0.26,0.83C72.26,74.74,72,75.08,72,75.08c0.63,1.03,1.86,2.26,2.68,2.55c0.19,0.07,0.39,0.1,0.57,0.1 c0.3,0,0.59-0.08,0.85-0.25C77.55,76.59,77.97,74.97,77.28,73.04z" fill="#504F4F"/>
</svg>

<svg viewBox="0 0 128 128" xmlns="http://www.w3.org/2000/svg">
  <defs>
    <radialGradient id="SVGID_3_" cx="73.7035" cy="-52.6428" gradientTransform="matrix(1 0 0 -1 0 0)" gradientUnits="userSpaceOnUse" r="21.1882">
      <stop offset="0.3637" stop-color="#00BFA5"/>
      <stop offset="0.8121" stop-color="#00B29A"/>
      <stop offset="1" stop-color="#00AB94"/>
    </radialGradient>
    <linearGradient id="arm_1_" gradientTransform="matrix(1 0 0 -1 0 0)" gradientUnits="userSpaceOnUse" x1="78.1825" x2="75.3918" y1="-66.53" y2="-53.5067">
      <stop offset="0.5979" stop-color="#70534A"/>
      <stop offset="1" stop-color="#5C4037"/>
    </linearGradient>
    <radialGradient id="hairHighlights_1_" cx="78.262471" cy="-12.130487" gradientTransform="matrix(0.9932 0.1161 0.1145 -0.9796 0 0)" gradientUnits="userSpaceOnUse" r="16.3145">
      <stop offset="0.5264" stop-color="#444140" stop-opacity="0"/>
      <stop offset="1" stop-color="#444140"/>
    </radialGradient>
    <linearGradient id="hand_2_" gradientTransform="matrix(1 0 0 -1 0 0)" gradientUnits="userSpaceOnUse" x1="72.5151" x2="64.143" y1="-68.6574" y2="-76.0992">
      <stop offset="0.5979" stop-color="#70534A"/>
      <stop offset="1" stop-color="#5C4037"/>
    </linearGradient>
    <linearGradient id="SVGID_1_" gradientTransform="matrix(0.9991 0.0432 0.0432 -0.9991 0 0)" gradientUnits="userSpaceOnUse" x1="61.424402" x2="40.476302" y1="-79.693329" y2="-105.408929">
      <stop offset="0.4697" stop-color="#E0E0E0"/>
      <stop offset="0.9915" stop-color="#BDBDBD"/>
    </linearGradient>
    <linearGradient id="SVGID_2_" gradientTransform="matrix(0.9981 0.0607 -0.0607 0.9981 0 0)" gradientUnits="userSpaceOnUse" x1="31.588089" x2="27.572489" y1="117.046223" y2="121.060023">
      <stop offset="0.4697" stop-color="#E0E0E0"/>
      <stop offset="0.9915" stop-color="#BDBDBD"/>
    </linearGradient>
  </defs>
  <path id="head_2_" d="M87,13.49 C84.46,9.39 78.72,6.2 73.96,6.99 C68.63,7.87 65.77,11.71 65.01,16.57 C64.74,18.33 64.79,20.09 65.09,21.34 C65.13,21.49 65.42,22.57 65.44,22.92 C65.64,24.23 63.1,25.54 62.8,26.98 C62.58,28.07 64.85,28.76 65.03,28.96 C65.92,29.94 64.51,34.59 70.75,35.06 C73.15,35.24 72.68,35.09 73.38,35.36 C74.48,35.78 74.38,38.72 74.38,38.72 C74.38,38.72 74.99,43.54 79.12,42.27 C83.83,40.81 84.01,37.49 84.01,37.49 C84.01,37.49 82.26,32.84 85.07,28.01 C87.31,24.13 88.63,16.12 87,13.49 Z" fill="#70534A"/>
  <path id="mouth_2_" d="M65.66,31.55 C66.52,31.6 67.38,31.4 68.11,30.86 C68.91,30.27 68.36,29.61 67.45,30 C66.9,30.24 66.12,30.35 65.41,30.22 L65.66,31.55 Z" fill="#1A1717"/>
  <path id="eye_2_" d="M70.439,23.594 C70.469,24.56 69.984,25.359 69.355,25.379 C68.725,25.399 68.191,24.632 68.16,23.666 C68.13,22.7 68.615,21.901 69.244,21.881 C69.874,21.861 70.409,22.628 70.439,23.594 Z" fill="#1A1717"/>
  <path id="eyebrow_2_" d="M68.41,21.04 C67.28,21.3 67.06,20.56 67.46,19.99 C67.76,19.57 68.45,19.24 69.74,19.57 C70.95,19.88 71.42,20.61 71.73,21.06 C72.04,21.51 71.97,21.93 71.69,21.95 C71.3,21.97 69.81,20.71 68.41,21.04 Z" fill="#1A1717"/>
  <path id="hair" d="M87.53,10.67 C85.21,7.82 80.96,5.97 76.92,5.79 C74.2,5.67 71.58,6.19 69.35,7.27 C69.31,7.29 65.4,9.63 64.46,11.7 C63.45,13.91 64.39,15.19 64.62,15.42 C64.98,15.78 65.79,15.66 65.79,15.66 C67.38,15.52 72.12,14.91 74.7,15.41 C75.11,15.49 75.56,15.61 75.75,15.98 C75.83,16.14 75.91,17.17 75.93,17.35 C76.13,19.68 75.96,21.15 76.69,22.6 C76.81,22.84 77.28,23.14 77.28,23.14 L78.21,21.66 C78.8,20.81 79.33,20.08 80.11,20.22 C82.41,20.63 82.15,24.72 79.48,25.72 C79.48,25.72 79.84,28.32 82.24,29.27 C84.36,30.06 85.27,29.6 85.5,28.63 C85.99,26.53 87.14,25.31 87.74,24.34 C88.45,23.19 89.19,22.01 89.69,18.94 C90.18,15.86 89.44,13.01 87.53,10.67 Z" fill="#232020"/>
  <path id="hairHighlights" d="M87.53,10.67 C85.21,7.82 80.96,5.97 76.92,5.79 C74.2,5.67 71.58,6.19 69.35,7.27 C69.31,7.29 65.25,9.64 64.46,11.7 C63.47,14.27 64.39,15.19 64.62,15.42 C64.98,15.78 65.79,15.66 65.79,15.66 C67.38,15.52 72.12,14.91 74.7,15.41 C75.11,15.49 75.56,15.61 75.75,15.98 C75.83,16.14 75.91,17.17 75.93,17.35 C76.13,19.68 75.96,21.15 76.69,22.6 C76.81,22.84 77.28,23.14 77.28,23.14 L78.21,21.66 C78.8,20.81 79.33,20.08 80.11,20.22 C82.41,20.63 82.15,24.72 79.48,25.72 C79.48,25.72 79.84,28.32 82.24,29.27 C84.36,30.06 85.27,29.6 85.5,28.63 C85.99,26.53 87.14,25.31 87.74,24.34 C88.45,23.19 89.19,22.01 89.69,18.94 C90.18,15.86 89.44,13.01 87.53,10.67 Z" fill="url(#hairHighlights_1_)"/>
  <path d="M23.68,121.23 L21.55,119.19 L57.34,81.65 L67.22,71.39 L69.35,73.42 L54.03,89.42 Z" fill="url(#SVGID_1_)"/>
  <path d="M21.559,119.208 L34.283,105.859 L36.418,107.895 L23.695,121.244 L21.559,119.208 Z" fill="#FF3D00"/>
  <path d="M24.67,121.05 A2.86 2.86 0 1 1 18.95,121.05 A2.86 2.86 0 1 1 24.67,121.05 Z" fill="url(#SVGID_2_)"/>
  <path d="M57.34,81.65 L59.49,83.7 L71.28,71.42 C71.67,71.02 71.65,70.38 71.25,69.99 L70.57,69.34 C70.17,68.96 69.53,68.97 69.15,69.37 L57.34,81.65 Z" fill="#636262"/>
  <path d="M104.36,108.76 L90.36,92.79 C89.49,91.79 88.97,90.54 88.89,89.22 L87.52,66.87 L72.1,68.57 L76.96,91.63 C77.75,95.36 79.84,98.69 82.87,101 L99.28,113.53 L104.36,108.76 Z" fill="#646464"/>
  <path d="M87.33,63.18 L69.84,64.78 L65.34,85.07 C64.51,88.81 64.22,92.66 64.49,96.49 L66.12,119.61 L72.76,119.61 L75.7,94.71 C75.7,94.71 80.68,81.45 80.84,81.38 C84.1,79.84 88.22,77.49 88.22,71.74 C88.22,70.92 87.33,63.18 87.33,63.18 Z" fill="#7C7C7C"/>
  <path d="M73.85,123.98 C74.48,123.98 74.99,123.47 74.99,122.84 L74.99,120.05 C74.99,118.16 73.07,116 73.07,116 L66.13,116 L59.88,118.06 C58.37,118.65 57.37,120.11 57.35,121.74 L57.35,123 C57.35,123.55 57.79,124 58.35,124 L73.85,123.98 Z" fill="#4568AD"/>
  <path d="M108.72,111.9 C109.16,111.45 109.16,110.73 108.72,110.29 L106.75,108.32 C105.41,106.98 102.53,106.81 102.53,106.81 L97.62,111.72 L94.66,117.6 C94.01,119.09 94.33,120.83 95.47,121.99 L96.36,122.88 C96.75,123.27 97.38,123.27 97.77,122.88 L108.72,111.9 Z" fill="#325599"/>
  <path d="M86.15,73.76 L72.25,73.76 C69.99,73.76 68.16,71.59 68.16,68.92 L70.3,46.53 C70.73,42.44 72.17,38.58 74.96,36.92 C79.82,33.53 83.52,35.59 84.92,37.71 C85.92,39.23 86.34,40.98 86.57,43.56 L89.02,68.9 C89.02,71.8 88.41,73.76 86.15,73.76 Z" fill="url(#SVGID_3_)"/>
  <path id="arm" d="M86.11,57.33 L84.31,47.37 L76.31,48.23 L78.77,58.17 L69.41,67.86 C66.76,70.53 71.6,73.1 73.31,72 L81.83,65.11 C83.34,63.81 86.56,61.6 86.11,57.33 Z" fill="url(#arm_1_)"/>
  <path id="hand" d="M70.57,68.37 C70.73,68.25 70.81,68.03 70.75,67.82 C70.67,67.56 70.38,67.41 70.12,67.5 C70.1,67.51 67.27,68.43 65.63,69.08 C65.16,69.27 63.73,69.83 63.69,71.58 C63.66,72.91 63.65,75.16 63.65,75.16 L65.96,72.76 C65.9,73.65 65.83,75.56 65.81,76.35 C65.77,77.68 66.79,78.21 68.16,77.47 C70.22,76.36 71.42,76.08 72.35,74.59 C72.64,74.11 73.13,71 73.31,70.35 L70.57,68.37 Z" fill="url(#hand_2_)"/>
  <path d="M75.64,53.35 L86.48,51.38 L84.73,41.71 C84.19,38.73 81.34,36.75 78.36,37.29 L78.31,37.3 C75.33,37.84 73.35,40.69 73.89,43.67 L75.64,53.35 Z" fill="#04A287"/>
  <path id="cord_2_" d="M77.28,73.04 C76.17,69.95 72.32,66.5 69.15,66.79 C66.95,66.79 67.03,68.56 67.03,68.56 L69.28,67.78 C71.61,67.49 75.37,70.72 76.33,73.38 C76.7,74.42 76.88,75.83 75.58,76.64 C75.4,76.75 75.22,76.77 75.02,76.7 C74.42,76.48 73.26,74.94 72.61,73.78 C72.61,73.78 72.5,74.38 72.35,74.61 C72.26,74.74 72,75.08 72,75.08 C72.63,76.11 73.86,77.34 74.68,77.63 C74.87,77.7 75.07,77.73 75.25,77.73 C75.55,77.73 75.84,77.65 76.1,77.48 C77.55,76.59 77.97,74.97 77.28,73.04 Z" fill="#504F4F"/>
</svg>
